X:1057
T:Lass That Made the Bed for Me, The
T:Da Lass Dat Made da Bed fir Me
R:reel
O:Shetland
Z:id:hn-reel-1057
M:C|
L:1/8
K:Ador
A3c BGGB | (3cBA e2- eefd | eAcA BGGB | (3cBA BG A3D |
E2Ac BGGB | (3cBA e2- eefd | eAcA BGGB | (3cBA BG A3B ||
|: cdef gagf | edef gze2- | edef gfe2- |1 efdf e3B :|2 efdf e4 ||

